X: 1
T: Jean Hamilton's Strathspey
C: Bobby Frew
R: strathspey
Z: 2012 John Chambers <jc:trillian.mit.edu>
M: C
L: 1/8
K: G
"D7"D2 |\
"G"B2 B>A "G7"G<B B>G | "C"E2 E>D E<G G<E |\
"G"D2 D>E D>E G>A | B<d d>B "Am"A2 "D7"D2 |
"G"B2 B>A "G7"G<B B>G | "C"E2 E>D E<G G<E |\
"G"D2 D>E D>E G>A | "D7"B<d A>B "G"G2 |]
"B7"B2 |\
"Em"e2 e>f g>f e>B | e>f g>f e<B "A7"B>^c |\
"D"d>e f>e "G"d>B "D"A>G | "Em"(3FGA "A7"E>G "D"F<D "D7"D>C |
"G"B,<D D>E D>E G>A | "Em"B<e e>f g>f e>d |\
"G"B>A G>A B<d B<G | "C"E>A "D7"F<D "G"G2 |]
